X:149
T: HORCH WER REITET SO
N: F0279
O: Europa, Mitteleuropa, Deutschland
R: Jugend - Lied, Spiel
M: 4/4
L: 1/8
K: F
 | F2zCFGAB | c4z4
F2zCFGAB | c4z3
c | =B2G2A2B2 | c2B2G3
c | d2G2A2=B2 | d2c2c3
c | f2f2e2e2 | d2d2c3
c | d2d2c2c2 | B2B2A3
A | G2A2B2=B2 | c4z3
B | A2c2G2c2 | F4z4

